dist/img/svg/ic_whatsapp.svg

<svg width="24" height="25" viewBox="0 0 24 25" fill="none" xmlns="http://www.w3.org/2000/svg">
<path d="M14.5156 14.4703C14.9049 13.9811 15.1645 13.7366 15.2943 13.7366C15.424 13.7366 15.9082 13.9562 16.7467 14.3954C17.5953 14.8347 18.0445 15.0992 18.0944 15.189C18.1144 15.239 18.1243 15.3138 18.1243 15.4137C18.1243 15.7431 18.0395 16.1224 17.8698 16.5517C17.7101 16.941 17.3557 17.2704 16.8066 17.54C16.2576 17.7995 15.7485 17.9293 15.2793 17.9293C14.7103 17.9293 13.7619 17.6198 12.4342 17.0009C11.4559 16.5517 10.6074 15.9627 9.88867 15.234C9.16992 14.5052 8.43121 13.5818 7.67253 12.4638C6.95378 11.3956 6.59939 10.4273 6.60938 9.55884V9.43905C6.63932 8.53063 7.00868 7.742 7.71745 7.07316C7.95703 6.85354 8.21658 6.74373 8.49609 6.74373C8.55599 6.74373 8.64583 6.75372 8.76562 6.77368C8.88542 6.78366 8.98025 6.78866 9.05013 6.78866C9.2398 6.78866 9.36957 6.82359 9.43945 6.89347C9.51931 6.95337 9.59918 7.08813 9.67904 7.29777C9.7589 7.49742 9.92361 7.93666 10.1732 8.61548C10.4227 9.2943 10.5475 9.66865 10.5475 9.73853C10.5475 9.94816 10.3728 10.2377 10.0234 10.607C9.68403 10.9664 9.51432 11.196 9.51432 11.2958C9.51432 11.3657 9.53928 11.4406 9.58919 11.5204C9.9286 12.2492 10.4377 12.933 11.1165 13.5719C11.6756 14.1009 12.4293 14.6051 13.3776 15.0842C13.4974 15.1541 13.6072 15.189 13.707 15.189C13.8568 15.189 14.1263 14.9495 14.5156 14.4703ZM12.2546 21.6728C13.5224 21.6728 14.7352 21.4232 15.8932 20.9241C17.0612 20.4249 18.0645 19.7561 18.903 18.9176C19.7415 18.079 20.4104 17.0808 20.9095 15.9228C21.4086 14.7548 21.6582 13.5369 21.6582 12.2691C21.6582 11.0013 21.4086 9.78844 20.9095 8.63045C20.4104 7.46248 19.7415 6.45923 18.903 5.62069C18.0645 4.78215 17.0612 4.11331 15.8932 3.61418C14.7352 3.11504 13.5224 2.86548 12.2546 2.86548C10.9868 2.86548 9.76888 3.11504 8.60091 3.61418C7.44292 4.11331 6.44466 4.78215 5.60612 5.62069C4.76758 6.45923 4.09874 7.46248 3.59961 8.63045C3.10048 9.78844 2.85091 11.0013 2.85091 12.2691C2.85091 14.2956 3.44987 16.1324 4.64779 17.7795L3.46484 21.2685L7.08854 20.1155C8.6658 21.1537 10.3878 21.6728 12.2546 21.6728ZM7.86719 1.8772C9.26476 1.27824 10.7272 0.97876 12.2546 0.97876C13.7819 0.97876 15.2394 1.27824 16.627 1.8772C18.0245 2.47616 19.2274 3.27976 20.2357 4.28801C21.2439 5.29625 22.0475 6.49916 22.6465 7.89673C23.2454 9.28432 23.5449 10.7418 23.5449 12.2691C23.5449 13.7965 23.2454 15.2589 22.6465 16.6565C22.0475 18.0441 21.2439 19.242 20.2357 20.2502C19.2274 21.2585 18.0245 22.0621 16.627 22.6611C15.2394 23.26 13.7819 23.5595 12.2546 23.5595C10.3079 23.5595 8.48611 23.0903 6.78906 22.1519L0.544922 24.1584L2.58138 18.094C1.50326 16.3171 0.964193 14.3755 0.964193 12.2691C0.964193 10.7418 1.26367 9.28432 1.86263 7.89673C2.46159 6.49916 3.26519 5.29625 4.27344 4.28801C5.28168 3.27976 6.4796 2.47616 7.86719 1.8772Z" fill="white"/>
</svg>

<svg width="24" height="25" viewBox="0 0 24 25" fill="none" xmlns="http://www.w3.org/2000/svg"><path d="M14.516 14.47c.389-.489.649-.733.778-.733.13 0 .614.22 1.453.658.848.44 1.297.704 1.347.794.02.05.03.125.03.225 0 .33-.084.708-.254 1.138-.16.389-.514.718-1.063.988-.55.26-1.058.39-1.528.39-.569 0-1.517-.31-2.845-.93a8.545 8.545 0 01-2.545-1.766c-.72-.729-1.458-1.652-2.216-2.77-.72-1.068-1.074-2.037-1.064-2.905v-.12c.03-.908.4-1.697 1.108-2.366.24-.22.5-.33.78-.33.059 0 .149.01.269.03.12.01.214.016.284.016.19 0 .32.035.39.104.08.06.16.195.239.405.08.2.245.639.494 1.317.25.68.374 1.054.374 1.124 0 .21-.174.499-.524.868-.339.36-.509.589-.509.689 0 .07.025.145.075.224.34.73.849 1.413 1.527 2.052.56.529 1.313 1.033 2.262 1.512.12.07.23.105.329.105.15 0 .42-.24.809-.719zm-2.261 7.203a9.1 9.1 0 003.638-.749c1.168-.5 2.171-1.168 3.01-2.006a9.506 9.506 0 002.007-2.995 9.207 9.207 0 00.748-3.654 9.12 9.12 0 00-.748-3.639c-.5-1.168-1.169-2.17-2.007-3.01-.838-.838-1.842-1.507-3.01-2.006a9.097 9.097 0 00-3.638-.749c-1.268 0-2.486.25-3.654.75A9.505 9.505 0 005.606 5.62C4.768 6.459 4.1 7.462 3.6 8.63a9.098 9.098 0 00-.75 3.638c0 2.027.6 3.863 1.798 5.51l-1.183 3.49 3.624-1.153c1.577 1.038 3.299 1.557 5.166 1.557zM7.867 1.877A11.024 11.024 0 0112.255.98c1.527 0 2.984.3 4.372.898 1.398.6 2.6 1.403 3.609 2.411 1.008 1.008 1.811 2.211 2.41 3.609.6 1.387.899 2.845.899 4.372 0 1.527-.3 2.99-.899 4.388-.599 1.387-1.402 2.585-2.41 3.593-1.009 1.009-2.212 1.812-3.609 2.411a10.919 10.919 0 01-4.372.898c-1.947 0-3.769-.469-5.466-1.407L.545 24.158l2.036-6.064C1.503 16.317.964 14.375.964 12.269c0-1.527.3-2.985.899-4.372.599-1.398 1.402-2.6 2.41-3.609C5.282 3.28 6.48 2.476 7.867 1.878z" fill="#fff"/></svg>
